X:1
T:Frankie Silver
M:3/4
L:1/8
K:Eb
 GBB| G3 G^F G| B,3 G^F G| A3 AG A| B3 GB B| B3| GBB| G3 EE E| B3 BG F|\
 G3||
